public/icon_quote.svg

<svg fill="none" height="32" viewBox="0 0 32 32" width="32" xmlns="http://www.w3.org/2000/svg"><path d="m9.352 4c-4.896 3.456-8.352 9.12-8.352 15.36 0 5.088 3.072 8.064 6.624 8.064 3.36 0 5.856-2.688 5.856-5.856s-2.208-5.472-5.088-5.472c-.576 0-1.344.096-1.536.192.48-3.264 3.552-7.104 6.624-9.024zm16.512 0c-4.8 3.456-8.256 9.12-8.256 15.36 0 5.088 3.072 8.064 6.624 8.064 3.264 0 5.856-2.688 5.856-5.856s-2.304-5.472-5.184-5.472c-.576 0-1.248.096-1.44.192.48-3.264 3.456-7.104 6.528-9.024z" fill="#08f" fill-opacity=".2"/></svg>

<svg width="32" height="32" viewBox="0 0 32 32" fill="none" xmlns="http://www.w3.org/2000/svg">
<path d="M9.352 4C4.456 7.456 1 13.12 1 19.36C1 24.448 4.072 27.424 7.624 27.424C10.984 27.424 13.48 24.736 13.48 21.568C13.48 18.4 11.272 16.096 8.392 16.096C7.816 16.096 7.048 16.192 6.856 16.288C7.336 13.024 10.408 9.184 13.48 7.264L9.352 4ZM25.864 4C21.064 7.456 17.608 13.12 17.608 19.36C17.608 24.448 20.68 27.424 24.232 27.424C27.496 27.424 30.088 24.736 30.088 21.568C30.088 18.4 27.784 16.096 24.904 16.096C24.328 16.096 23.656 16.192 23.464 16.288C23.944 13.024 26.92 9.184 29.992 7.264L25.864 4Z" fill="#0088FF" fill-opacity="0.2"/>
</svg>
